packages/components/src/components/icon/common/ic-arrow-down-bold.svg

<svg width="16" height="16" viewBox="0 0 16 16" fill="none" xmlns="http://www.w3.org/2000/svg">
<path d="M7.00498 1.20874V12.3787L2.12498 7.49874C1.73498 7.10874 1.09498 7.10874 0.704976 7.49874C0.314976 7.88874 0.314976 8.51874 0.704976 8.90874L7.29498 15.4987C7.68498 15.8887 8.31498 15.8887 8.70498 15.4987L15.295 8.90874C15.685 8.51874 15.685 7.88874 15.295 7.49874C15.1081 7.31149 14.8545 7.20625 14.59 7.20625C14.3255 7.20625 14.0718 7.31149 13.885 7.49874L9.00498 12.3787V1.20874C9.00498 0.65874 8.55498 0.20874 8.00498 0.20874C7.45498 0.20874 7.00498 0.65874 7.00498 1.20874Z" fill="#333333"/>
</svg>

<svg width="16" height="16" fill="none" xmlns="http://www.w3.org/2000/svg"><path d="M7.005 1.209v11.17l-4.88-4.88c-.39-.39-1.03-.39-1.42 0a.996.996 0 0 0 0 1.41l6.59 6.59c.39.39 1.02.39 1.41 0l6.59-6.59a.996.996 0 1 0-1.41-1.41l-4.88 4.88V1.209c0-.55-.45-1-1-1s-1 .45-1 1Z" fill="#333"/></svg>
